X: 90
T: Song of Healing
C: Teton Sioux band 1911-1914
N: Derived from sioux090.krn
O: South Dakota, U.S.A.
N: Teton Sioux Music by Frances Densmore, 1918
Z: transcribed to **kern format by Craig Sapp
L: 1/8
M: 2/4
Q: 1/4=58
K: F clef=bass
%%linebreak <none>
D< D D D [I:setbarnb 1]||  
[M:3/4](D2>A,2)A,2 ||  
[M:2/4]A,< A, A, A, ||  
[M:3/4](A,2>G,2)F,2 ||  
[M:2/4]F,< F, A, A, ||  
[M:3/4](A,2>G,2) F, G,/ G,/ | 
G,> G, G, G,/ G,/ G, F, ||  
[M:2/4]G, F, F,/ D,3/ ||  
[M:3/4](F,4D,2) ||  
[M:2/4]F,< F, F, (G,/ F,/) | 
D,4 | 
D,4 | 
D,< D, A, A, ||  
[M:3/4](A,2>G,2)F,2 ||  
[M:2/4]F,< F, A, A, ||  
[M:3/4](A,2>G,2) F, G,/ G,/ | 
G,> G, G, G,/ G,/ G, F, ||  
[M:2/4]G, F, F,/ D,3/ ||  
[M:3/4](F,4D,2) ||  
[M:2/4]F,< F, F, (G,/ F,/) | 
D,4 | 
D,4 |]  



